X:0092
T:Well done Jock.
T:Well done Jack.
N:the second title is as in the index
M:6/8
L:1/8
Q:3/8=120
I: :: ::
Z:Jack Campin * www.campin.me.uk * 2009
K:D
a2f g2e|f2d ecA|a2f g2e|fee efg|
a2f g2e|f2d cBA|Bcd cde|d3  D3:|
DFA AFA|DGB BGB|DFA AGF|GEE E3 |
DFA AFA|DGB BGB|Agf edc|d3  D3:|
<end>
<start>
